X: 109
T: Pollonesse #109
M: 3/4
L: 1/16
R: Pollonesse
K: Dm
Q: 110
g2a2 b2a2 g2f2|agfg d4 B2c2|d2dB c2cA B2Bd|c2cd B2Bc A4|
g2a2 b2a2 g2f2|agfg d4 B2c2|d2dB c2cA B2d2|cAFA G4G,4:|
d2dB c2cA B2Bd|c2cd B2Bc A4|d2dB c2cA B2Bd|c2cd B2Bc A4|
g2a2 b2a2 g2f2|agfg d4 B2c2|d2dB c2cA B2d2|cAFA G4G,4:|

